dist/assets/images/features/04.svg

<svg width="40" height="40" viewBox="0 0 40 40" fill="none" xmlns="http://www.w3.org/2000/svg">
<rect width="40" height="40" fill="#E5E5E5"/>
<g id="Funiro Landing Page" clip-path="url(#clip0_0_1)">
<rect width="1440" height="4675" transform="translate(-1133 -884)" fill="white"/>
<g id="Feature">
<g id="Group 4">
<g id="customer-support" clip-path="url(#clip1_0_1)">
<path id="Vector" d="M36.4624 15.9752C36.1995 7.12165 28.9161 0 20 0C11.0838 0 3.80043 7.12165 3.53745 15.9752L2.35291 17.1598V25.1932L3.52938 26.3696V31.8431C3.52938 35.0435 6.13298 37.6471 9.3333 37.6471H10.7906C11.2762 39.0164 12.5839 40 14.1176 40H16.4706C18.0053 40 19.3137 39.015 19.7986 37.6442C19.8658 37.6454 19.9331 37.6471 20 37.6471C25.6814 37.6471 30.4351 33.5987 31.5281 28.2353H34.6049L37.647 25.1932V17.1598L36.4624 15.9752ZM20 2.35294C26.9828 2.35294 32.7969 7.44933 33.9204 14.1176H31.5281C30.4351 8.7542 25.6814 4.70588 20 4.70588C14.3186 4.70588 9.56483 8.7542 8.47181 14.1176H6.07949C7.20302 7.44933 13.0171 2.35294 20 2.35294ZM29.1139 14.1176C25.3109 14.1063 22.6246 14.3379 20.4098 11.1004L19.3344 9.52839L18.4102 11.1938C17.0635 13.6204 15.2499 14.1176 12.9411 14.1176H10.886C11.9335 10.0629 15.6225 7.05882 20 7.05882C24.3775 7.05882 28.0665 10.0629 29.1139 14.1176ZM8.23526 25.8824H6.36961L4.70585 24.2186V18.1344L6.36961 16.4706H8.23526V25.8824ZM5.88232 31.8431V28.2353H8.46953C8.91244 30.4294 9.97212 32.4435 11.542 34.0611C11.2129 34.4127 10.9548 34.8311 10.7906 35.2941H9.3333C7.4304 35.2941 5.88232 33.746 5.88232 31.8431ZM16.4706 37.6471H14.1176C13.4688 37.6471 12.9411 37.1194 12.9411 36.4706C12.9411 35.8219 13.4688 35.2941 14.1176 35.2941H16.4706C17.1193 35.2941 17.647 35.8219 17.647 36.4706C17.647 37.1194 17.1193 37.6471 16.4706 37.6471ZM29.4117 25.8824C29.4117 31.072 25.1896 35.2941 20 35.2941C19.9325 35.2941 19.8645 35.2928 19.7966 35.2912C19.3102 33.9234 18.0032 32.9412 16.4706 32.9412C14.0549 32.9465 14.0934 32.9291 13.7923 32.9568C11.7498 31.1665 10.5882 28.6166 10.5882 25.8824V16.4706H12.9411C15.0233 16.4706 17.5589 16.1273 19.5218 13.7384C22.1116 16.4524 25.2764 16.4706 28.1175 16.4706H29.4117V25.8824ZM35.2941 24.2186L33.6303 25.8824H31.7647V16.4706H33.6303L35.2941 18.1344V24.2186Z" fill="#3A3A3A"/>
</g>
</g>
</g>
</g>
<defs>
<clipPath id="clip0_0_1">
<rect width="1440" height="4675" fill="white" transform="translate(-1133 -884)"/>
</clipPath>
<clipPath id="clip1_0_1">
<rect width="40" height="40" fill="white"/>
</clipPath>
</defs>
</svg>

<svg width="40" height="40" viewBox="0 0 40 40" fill="none" xmlns="http://www.w3.org/2000/svg"><path fill="#E5E5E5" d="M0 0h40v40H0z"/><g clip-path="url(#a)"><path fill="#fff" d="M-1133-884H307v4675h-1440z"/><g clip-path="url(#b)"><path d="M36.462 15.975C36.2 7.122 28.916 0 20 0S3.8 7.122 3.537 15.975L2.353 17.16v8.033l1.176 1.177v5.473a5.81 5.81 0 0 0 5.804 5.804h1.458A3.535 3.535 0 0 0 14.118 40h2.353a3.535 3.535 0 0 0 3.328-2.356l.201.003c5.681 0 10.435-4.048 11.528-9.412h3.077l3.042-3.042V17.16l-1.185-1.185ZM20 2.353c6.983 0 12.797 5.096 13.92 11.765h-2.392C30.435 8.754 25.681 4.706 20 4.706S9.565 8.754 8.472 14.118H6.079C7.203 7.449 13.017 2.353 20 2.353Zm9.114 11.765c-3.803-.012-6.49.22-8.704-3.018l-1.076-1.572-.924 1.666c-1.346 2.426-3.16 2.924-5.469 2.924h-2.055c1.048-4.055 4.737-7.06 9.114-7.06 4.378 0 8.067 3.005 9.114 7.06ZM8.235 25.882H6.37L4.706 24.22v-6.085l1.664-1.663h1.865v9.411Zm-2.353 5.961v-3.608H8.47a11.661 11.661 0 0 0 3.072 5.826 3.52 3.52 0 0 0-.751 1.233H9.333a3.455 3.455 0 0 1-3.45-3.45Zm10.589 5.804h-2.353a1.178 1.178 0 0 1 0-2.353h2.353a1.178 1.178 0 0 1 0 2.353Zm12.94-11.765c0 5.19-4.221 9.412-9.411 9.412a6.87 6.87 0 0 1-.203-.003 3.535 3.535 0 0 0-3.326-2.35c-2.416.005-2.378-.012-2.679.016a9.357 9.357 0 0 1-3.204-7.075v-9.411h2.353c2.082 0 4.618-.344 6.58-2.733 2.59 2.714 5.755 2.733 8.596 2.733h1.295v9.411Zm5.883-1.663-1.664 1.663h-1.865v-9.411h1.865l1.664 1.663v6.085Z" fill="#3A3A3A"/></g></g><defs><clipPath id="a"><path fill="#fff" transform="translate(-1133 -884)" d="M0 0h1440v4675H0z"/></clipPath><clipPath id="b"><path fill="#fff" d="M0 0h40v40H0z"/></clipPath></defs></svg>
